static/img/kroki/4066da1e9b1e601d2572afdf519dcf91.svg

<?xml version="1.0" encoding="us-ascii" standalone="no"?><svg xmlns="http://www.w3.org/2000/svg" xmlns:xlink="http://www.w3.org/1999/xlink" contentStyleType="text/css" height="374px" preserveAspectRatio="none" style="width:268px;height:374px;" version="1.1" viewBox="0 0 268 374" width="268px" zoomAndPan="magnify"><defs/><g><!--class kubernetes_priority_class--><g id="elem_kubernetes_priority_class"><rect codeLine="23" fill="#3D176E" height="39.7891" id="kubernetes_priority_class" rx="2.5" ry="2.5" style="stroke:#000D19;stroke-width:0.5;" width="254" x="7" y="328.58"/><ellipse cx="22" cy="348.4745" fill="#ADD1B2" rx="11" ry="11" style="stroke:#181818;stroke-width:1.0;"/><path d="M24.9688,354.1152 Q24.3906,354.412 23.75,354.5527 Q23.1094,354.7089 22.4063,354.7089 Q19.9063,354.7089 18.5781,353.0683 Q17.2656,351.412 17.2656,348.287 Q17.2656,345.162 18.5781,343.5058 Q19.9063,341.8495 22.4063,341.8495 Q23.1094,341.8495 23.75,342.0058 Q24.4063,342.162 24.9688,342.4589 L24.9688,345.1777 Q24.3438,344.5995 23.75,344.3339 Q23.1563,344.0527 22.5313,344.0527 Q21.1875,344.0527 20.5,345.1308 Q19.8125,346.1933 19.8125,348.287 Q19.8125,350.3808 20.5,351.4589 Q21.1875,352.5214 22.5313,352.5214 Q23.1563,352.5214 23.75,352.2558 Q24.3438,351.9745 24.9688,351.3964 L24.9688,354.1152 Z " fill="#000000"/><text fill="#D9B8FF" font-family="Helvetica" font-size="17" lengthAdjust="spacing" textLength="212" x="41" y="354.3598">kubernetes_priority_class</text></g><!--class kubernetes_resource--><g id="elem_kubernetes_resource"><rect codeLine="26" fill="#3D176E" height="39.7891" id="kubernetes_resource" rx="2.5" ry="2.5" style="stroke:#000D19;stroke-width:0.5;" width="216" x="26" y="167.79"/><ellipse cx="41" cy="187.6845" fill="#ADD1B2" rx="11" ry="11" style="stroke:#181818;stroke-width:1.0;"/><path d="M43.9688,193.3252 Q43.3906,193.622 42.75,193.7627 Q42.1094,193.9189 41.4063,193.9189 Q38.9063,193.9189 37.5781,192.2783 Q36.2656,190.622 36.2656,187.497 Q36.2656,184.372 37.5781,182.7158 Q38.9063,181.0595 41.4063,181.0595 Q42.1094,181.0595 42.75,181.2158 Q43.4063,181.372 43.9688,181.6689 L43.9688,184.3877 Q43.3438,183.8095 42.75,183.5439 Q42.1563,183.2627 41.5313,183.2627 Q40.1875,183.2627 39.5,184.3408 Q38.8125,185.4033 38.8125,187.497 Q38.8125,189.5908 39.5,190.6689 Q40.1875,191.7314 41.5313,191.7314 Q42.1563,191.7314 42.75,191.4658 Q43.3438,191.1845 43.9688,190.6064 L43.9688,193.3252 Z " fill="#000000"/><text fill="#D9B8FF" font-family="Helvetica" font-size="17" lengthAdjust="spacing" textLength="174" x="60" y="193.5698">kubernetes_resource</text></g><!--class resource--><g id="elem_resource"><rect codeLine="29" fill="#3D176E" height="39.7891" id="resource" rx="2.5" ry="2.5" style="stroke:#000D19;stroke-width:0.5;" width="113" x="77.5" y="7"/><ellipse cx="92.5" cy="26.8945" fill="#ADD1B2" rx="11" ry="11" style="stroke:#181818;stroke-width:1.0;"/><path d="M95.4688,32.5352 Q94.8906,32.832 94.25,32.9727 Q93.6094,33.1289 92.9063,33.1289 Q90.4063,33.1289 89.0781,31.4883 Q87.7656,29.832 87.7656,26.707 Q87.7656,23.582 89.0781,21.9258 Q90.4063,20.2695 92.9063,20.2695 Q93.6094,20.2695 94.25,20.4258 Q94.9063,20.582 95.4688,20.8789 L95.4688,23.5977 Q94.8438,23.0195 94.25,22.7539 Q93.6563,22.4727 93.0313,22.4727 Q91.6875,22.4727 91,23.5508 Q90.3125,24.6133 90.3125,26.707 Q90.3125,28.8008 91,29.8789 Q91.6875,30.9414 93.0313,30.9414 Q93.6563,30.9414 94.25,30.6758 Q94.8438,30.3945 95.4688,29.8164 L95.4688,32.5352 Z " fill="#000000"/><text fill="#D9B8FF" font-family="Helvetica" font-size="17" lengthAdjust="spacing" textLength="71" x="111.5" y="32.7798">resource</text></g><!--reverse link kubernetes_resource to kubernetes_priority_class--><g id="link_kubernetes_resource_kubernetes_priority_class"><path codeLine="32" d="M134,225.84 C134,256.36 134,297.69 134,328.25 " fill="none" id="kubernetes_resource-backto-kubernetes_priority_class" style="stroke:#FFAF37;stroke-width:2.0;"/><polygon fill="none" points="134,207.84,128,225.84,140,225.84,134,207.84" style="stroke:#FFAF37;stroke-width:2.0;"/></g><!--reverse link resource to kubernetes_resource--><g id="link_resource_kubernetes_resource"><path codeLine="33" d="M134,65.05 C134,95.57 134,136.9 134,167.46 " fill="none" id="resource-backto-kubernetes_resource" style="stroke:#FFAF37;stroke-width:2.0;"/><polygon fill="none" points="134,47.05,128,65.05,140,65.05,134,47.05" style="stroke:#FFAF37;stroke-width:2.0;"/></g><!--SRC=[XPBBQiCm44Nt_Wf1rWQxeNKCtQI6qcv2QReFiZMAXMt9ZCODxkFV6pTDKQmusSuvwDuPL2e139gMUjP0amFQm5PAjnnvmvQ8PfUPsY2RISdbF1d3HwFfgh3Y3R0dgD-1LC77nbkfYag3jUp6GG-ygBPeEYqEpnDoRVS8D3bMLdDhbqIeyex0AIFIV27bs1m_EfkBEBa3JpCe0F-KA8f4d8wLgr4Nz_utrke3MEmURMK8l9fUnAzriULWE2MzHOzyikCB5qBfBRjrPg-7JgW1J-RhaWkp6sp9Q-l6M084GtqBcRSLf0iXaxFoyvGS5CFfMDNjVwe60hjfKHbKr6yEv3C8ldq9mPeE2t3nwUoSVFyLXk5qLZ0j7adm0m00]--></g></svg>

<svg xmlns="http://www.w3.org/2000/svg" width="268" height="374" viewBox="0 0 268 374"><rect width="254" height="39.789" x="7" y="328.58" fill="#3D176E" rx="2.5" ry="2.5" style="stroke:#000d19;stroke-width:.5"/><circle cx="22" cy="348.474" r="11" fill="#ADD1B2" style="stroke:#181818;stroke-width:1"/><path d="M24.969 354.115q-.578.297-1.219.438-.64.156-1.344.156-2.5 0-3.828-1.64-1.312-1.657-1.312-4.782t1.312-4.781q1.328-1.656 3.828-1.656.703 0 1.344.156.656.156 1.219.453v2.719q-.625-.579-1.219-.844-.594-.281-1.219-.281-1.343 0-2.031 1.078-.687 1.062-.687 3.156t.687 3.172q.688 1.062 2.031 1.062.625 0 1.219-.265.594-.281 1.219-.86z"/><text x="41" y="354.36" fill="#D9B8FF" font-family="Helvetica" font-size="17" textLength="212">kubernetes_priority_class</text><rect width="216" height="39.789" x="26" y="167.79" fill="#3D176E" rx="2.5" ry="2.5" style="stroke:#000d19;stroke-width:.5"/><circle cx="41" cy="187.685" r="11" fill="#ADD1B2" style="stroke:#181818;stroke-width:1"/><path d="M43.969 193.325q-.578.297-1.219.438-.64.156-1.344.156-2.5 0-3.828-1.64-1.312-1.657-1.312-4.782t1.312-4.781q1.328-1.656 3.828-1.656.703 0 1.344.156.656.156 1.219.453v2.719q-.625-.578-1.219-.844-.594-.281-1.219-.281-1.343 0-2.031 1.078-.687 1.062-.687 3.156t.687 3.172q.688 1.062 2.031 1.062.625 0 1.219-.265.594-.281 1.219-.86z"/><text x="60" y="193.57" fill="#D9B8FF" font-family="Helvetica" font-size="17" textLength="174">kubernetes_resource</text><rect width="113" height="39.789" x="77.5" y="7" fill="#3D176E" rx="2.5" ry="2.5" style="stroke:#000d19;stroke-width:.5"/><circle cx="92.5" cy="26.895" r="11" fill="#ADD1B2" style="stroke:#181818;stroke-width:1"/><path d="M95.469 32.535q-.578.297-1.219.438-.64.156-1.344.156-2.5 0-3.828-1.64-1.312-1.657-1.312-4.782t1.312-4.781q1.328-1.656 3.828-1.656.703 0 1.344.156.656.156 1.219.453v2.719q-.625-.578-1.219-.844-.594-.281-1.219-.281-1.344 0-2.031 1.078-.687 1.062-.687 3.156T91 29.879q.688 1.062 2.031 1.062.625 0 1.219-.265.594-.281 1.219-.86z"/><text x="111.5" y="32.78" fill="#D9B8FF" font-family="Helvetica" font-size="17" textLength="71">resource</text><path fill="none" d="M134 225.84v102.41m0-120.41-6 18h12zm0-142.79v102.41m0-120.41-6 18h12z" style="stroke:#ffaf37;stroke-width:2"/></svg>
